X: 15
T: Good Natured Man, The
C: James Hill
Z: leprecawn
S: https://thesession.org/tunes/312#setting50261
R: hornpipe
M: 4/4
L: 1/8
K: Gmaj
|:(3def|"G"g2bg d2gd|"G"BcdB G2AB|"C"cded cBAG|"D"FAEF D2 Bd|
"G"g2bg d2gd|"G"BcdB G2AB|"C"cedc "D7"BAGF|"D"AGGF "G"G2:|
|:Bc|"G"dBdB g2gf|"C"ecec a2ag|"D"f2fd "G"g2ge|"D"fgaf defd|
"G"g2bg d2gd|"G"BcdB G2AB|"C"cedc "D7"BAGF|"D"AGGF "G"G2:|

